src/assets/icons/record_finished_reading.svg

<svg width="20" height="20" viewBox="0 0 20 20" fill="none" xmlns="http://www.w3.org/2000/svg">
<g clip-path="url(#clip0_2547_5012)">
<path d="M3.90991 17.1301V12.4301C3.90991 12.4301 7.23991 10.5801 7.06991 12.4301V15.8301C7.06532 16.0225 6.98886 16.2062 6.8556 16.345C6.72234 16.4838 6.54193 16.5677 6.34991 16.5801C5.53375 16.6005 4.73182 16.7984 3.99991 17.1601C3.99991 17.1601 3.90991 17.1601 3.90991 17.1301Z" stroke="#2F3645" stroke-width="1.5" stroke-linecap="round" stroke-linejoin="round"/>
<path d="M3.90997 17.14V12.44C3.90997 12.44 0.589975 10.57 0.759975 12.44V15.87C0.762087 16.0641 0.837439 16.2503 0.970946 16.3912C1.10445 16.5321 1.28626 16.6174 1.47997 16.63C2.30825 16.6059 3.12953 16.788 3.86997 17.16C3.86997 17.16 3.90997 17.16 3.90997 17.14Z" stroke="#2F3645" stroke-width="1.5" stroke-linecap="round" stroke-linejoin="round"/>
<path d="M4 19.2202H16C16.4235 19.2242 16.8436 19.1436 17.2355 18.9831C17.6274 18.8225 17.9833 18.5854 18.2823 18.2854C18.5814 17.9855 18.8174 17.6288 18.9767 17.2364C19.136 16.844 19.2153 16.4237 19.21 16.0002C19.1995 15.1576 18.856 14.3534 18.2545 13.7632C17.6531 13.1731 16.8426 12.8448 16 12.8502H12.86" stroke="#2F3645" stroke-width="1.5" stroke-linecap="round" stroke-linejoin="round"/>
<path d="M16.4099 7.6001H12.2899C11.5924 7.6001 10.9234 7.87719 10.4302 8.37041C9.937 8.86363 9.65991 9.53258 9.65991 10.2301C9.65991 10.9276 9.937 11.5966 10.4302 12.0898C10.9234 12.583 11.5924 12.8601 12.2899 12.8601H15.2899" stroke="#2F3645" stroke-width="1.5" stroke-linecap="round" stroke-linejoin="round"/>
<path d="M18.9999 4.14004H14.9999C14.939 4.13026 14.8838 4.09829 14.8451 4.05029C14.8063 4.0023 14.7866 3.94166 14.7899 3.88004V1.00004C14.7891 0.940122 14.8099 0.881916 14.8485 0.836029C14.887 0.790142 14.9407 0.759628 14.9999 0.750045H18.9999C19.1199 0.750045 19.3799 0.700045 19.2099 1.01004L18.5199 2.44004L19.2099 3.88004C19.2899 4.07004 19.1099 4.14004 18.9999 4.14004Z" stroke="#2F3645" stroke-width="1.5" stroke-miterlimit="10"/>
<path d="M14.74 6.98015V0.900146" stroke="#2F3645" stroke-width="1.5" stroke-linecap="round" stroke-linejoin="round"/>
</g>
<defs>
<clipPath id="clip0_2547_5012">
<rect width="20.01" height="19.97" fill="white"/>
</clipPath>
</defs>
</svg>

<svg xmlns="http://www.w3.org/2000/svg" viewBox="0 0 20.01 19.97"><defs><style>.cls-1,.cls-2{fill:none;stroke:#2f3645;stroke-width:1.5px;}.cls-1{stroke-linecap:round;stroke-linejoin:round;}.cls-2{stroke-miterlimit:10;}</style></defs><g id="레이어_2" data-name="레이어 2"><g id="레이어_1-2" data-name="레이어 1"><g id="registration_finished_readring" data-name="registration/finished_readring"><path class="cls-1" d="M3.91,17.13v-4.7s3.33-1.85,3.16,0v3.4a.77.77,0,0,1-.72.75A5.62,5.62,0,0,0,4,17.16S3.91,17.16,3.91,17.13Z"/><path class="cls-1" d="M3.91,17.14v-4.7s-3.32-1.87-3.15,0v3.43a.77.77,0,0,0,.72.76,5,5,0,0,1,2.39.53S3.91,17.16,3.91,17.14Z"/><path class="cls-1" d="M4,19.22H16A3.18,3.18,0,0,0,19.21,16h0A3.19,3.19,0,0,0,16,12.85H12.86"/><path class="cls-1" d="M16.41,7.6H12.29a2.63,2.63,0,0,0-2.63,2.63h0a2.63,2.63,0,0,0,2.63,2.63h3"/><path class="cls-2" d="M19,4.14H15a.25.25,0,0,1-.21-.26V1A.25.25,0,0,1,15,.75h4c.12,0,.38-.05.21.26l-.69,1.43.69,1.44C19.29,4.07,19.11,4.14,19,4.14Z"/><line class="cls-1" x1="14.74" y1="6.98" x2="14.74" y2="0.9"/></g></g></g></svg>
